img/icons/social/twitter.svg

<svg width="20" height="16" viewBox="0 0 20 16" fill="none" xmlns="http://www.w3.org/2000/svg">
<path d="M6.8185 15.7768C13.9461 15.7768 17.8457 9.87018 17.8457 4.74956C17.8457 4.58351 17.842 4.41377 17.8346 4.24772C18.5932 3.69912 19.2479 3.0196 19.7678 2.24109C19.0613 2.55542 18.3112 2.76071 17.5431 2.84994C18.3519 2.36516 18.9574 1.6036 19.2475 0.706418C18.4867 1.15732 17.6547 1.47539 16.7871 1.647C16.2025 1.02586 15.4296 0.614591 14.5878 0.476779C13.746 0.338967 12.8823 0.482289 12.1302 0.884585C11.3781 1.28688 10.7794 1.92575 10.4268 2.7024C10.0742 3.47906 9.9872 4.35025 10.1794 5.18129C8.63877 5.10398 7.13163 4.70378 5.75564 4.00663C4.37964 3.30948 3.16551 2.33094 2.19196 1.13446C1.69715 1.98757 1.54574 2.99708 1.7685 3.95782C1.99126 4.91855 2.57147 5.75843 3.39122 6.30674C2.7758 6.2872 2.17386 6.12151 1.63514 5.82335V5.87132C1.63459 6.7666 1.9441 7.63444 2.51105 8.32732C3.078 9.0202 3.86741 9.49536 4.74508 9.67203C4.17499 9.82801 3.57666 9.85073 2.99639 9.73845C3.24405 10.5084 3.72591 11.1818 4.37472 11.6647C5.02353 12.1476 5.80691 12.4159 6.61554 12.4322C5.24273 13.5105 3.5469 14.0954 1.80119 14.0927C1.4916 14.0922 1.18232 14.0732 0.875 14.0358C2.64845 15.1736 4.71145 15.7779 6.8185 15.7768Z" fill="white"/>
</svg>

<svg width="20" height="16" fill="none" xmlns="http://www.w3.org/2000/svg"><path d="M6.819 15.777c7.127 0 11.027-5.907 11.027-11.027 0-.166-.004-.336-.011-.502a7.87 7.87 0 001.933-2.007 7.642 7.642 0 01-2.225.609A3.897 3.897 0 0019.247.706a7.79 7.79 0 01-2.46.941 3.881 3.881 0 00-6.608 3.534 11.009 11.009 0 01-7.987-4.047 3.88 3.88 0 001.2 5.173 3.88 3.88 0 01-1.757-.484v.048a3.875 3.875 0 003.11 3.801 3.853 3.853 0 01-1.749.066 3.884 3.884 0 003.62 2.694 7.775 7.775 0 01-5.741 1.604 10.996 10.996 0 005.944 1.74z" fill="#fff"/></svg>
